twotone/svg/filter_frames.svg

<svg xmlns="http://www.w3.org/2000/svg" width="24" height="24"><path fill="none" d="M0 0h24v24H0z"/><g fill="currentColor"><path opacity=".3" d="M8 10h8v6H8z"/><path d="M20 4h-4l-4-4-4 4H4c-1.1 0-2 .9-2 2v14c0 1.1.9 2 2 2h16c1.1 0 2-.9 2-2V6c0-1.1-.9-2-2-2zm0 16H4V6h4.52l3.52-3.5L15.52 6H20v14z"/><path d="M6 18h12V8H6v10zm2-8h8v6H8v-6z"/></g></svg>

<?xml version="1.0" encoding="utf-8"?>
<!-- Generator: Adobe Illustrator 19.1.0, SVG Export Plug-In . SVG Version: 6.00 Build 0)  -->
<svg version="1.1" xmlns="http://www.w3.org/2000/svg" xmlns:xlink="http://www.w3.org/1999/xlink" x="0px" y="0px" width="24px"
	 height="24px" viewBox="0 0 24 24" enable-background="new 0 0 24 24" xml:space="preserve">
<g id="Bounding_Boxes">
	<g id="ui_x5F_spec_x5F_header_copy_3">
	</g>
	<rect fill="none" width="24" height="24"/>
</g>
<g id="Duotone" fill="currentColor">
	<g id="ui_x5F_spec_x5F_header_copy_5">
	</g>
	<g>
		<rect x="8" y="10" opacity="0.3" width="8" height="6"/>
		<path d="M20,4h-4l-4-4L8,4H4C2.9,4,2,4.9,2,6v14c0,1.1,0.9,2,2,2h16c1.1,0,2-0.9,2-2V6C22,4.9,21.1,4,20,4z M20,20H4V6h4.52
			l3.52-3.5L15.52,6H20V20z"/>
		<path d="M6,18h12V8H6V18z M8,10h8v6H8V10z"/>
	</g>
</g>
</svg>
